src/lib/packages/icons/src/assets/filled/home-dash-search.svg

<svg width="24" height="24" viewBox="0 0 24 24" fill="none" xmlns="http://www.w3.org/2000/svg">
<path fill-rule="evenodd" clip-rule="evenodd" d="M13.5831 12.917C13.5831 14.112 12.611 15.084 11.417 15.084C10.222 15.084 9.25005 14.112 9.25005 12.917C9.25005 11.722 10.222 10.75 11.417 10.75C12.611 10.75 13.5831 11.722 13.5831 12.917ZM20.9681 10.966L19.513 18.949C19.296 20.137 18.261 21.001 17.054 21.001H6.94804C5.74004 21.001 4.70506 20.137 4.48906 18.949L3.0341 10.9671C2.9041 10.2531 3.1711 9.524 3.7321 9.064L10.413 3.57108C11.336 2.81208 12.667 2.81208 13.59 3.57108L20.272 9.064C20.831 9.523 21.0981 10.252 20.9681 10.966ZM16.0301 16.47L14.48 14.9201C14.858 14.3431 15.0821 13.6561 15.0821 12.9161C15.0821 10.8951 13.4371 9.24906 11.4161 9.24906C9.39406 9.24906 7.74907 10.8941 7.74907 12.9161C7.74907 14.9381 9.39406 16.583 11.4161 16.583C12.1561 16.583 12.843 16.359 13.419 15.98L14.9681 17.5291C15.1141 17.6751 15.3061 17.7491 15.4981 17.7491C15.6901 17.7491 15.882 17.6761 16.028 17.5291C16.323 17.2371 16.3231 16.763 16.0301 16.47Z" fill="currentColor"/>
</svg>

<svg xmlns="http://www.w3.org/2000/svg" width="24" height="24" fill="none"><path fill="currentColor" fill-rule="evenodd" d="M13.583 12.917a2.17 2.17 0 0 1-2.166 2.167 2.17 2.17 0 0 1-2.167-2.167 2.17 2.17 0 0 1 2.167-2.167 2.17 2.17 0 0 1 2.166 2.167Zm7.385-1.951-1.455 7.983a2.5 2.5 0 0 1-2.459 2.052H6.948a2.5 2.5 0 0 1-2.459-2.052l-1.455-7.982a1.998 1.998 0 0 1 .698-1.903l6.681-5.493a2.501 2.501 0 0 1 3.177 0l6.682 5.493c.559.459.826 1.188.696 1.902ZM16.03 16.47l-1.55-1.55a3.645 3.645 0 0 0 .602-2.004 3.672 3.672 0 0 0-3.666-3.667 3.671 3.671 0 0 0-3.667 3.667 3.671 3.671 0 0 0 3.667 3.667c.74 0 1.427-.224 2.003-.603l1.55 1.55a.748.748 0 0 0 1.059 0 .746.746 0 0 0 .002-1.06Z" clip-rule="evenodd"/></svg>
